dist/images/union-orange.svg

<svg width="40" height="40" viewBox="0 0 40 40" fill="none" xmlns="http://www.w3.org/2000/svg">
<path fill-rule="evenodd" clip-rule="evenodd" d="M28.005 0H19.834V16.8626H11.9929V22.0261H19.8344V16.8628H28.005V0ZM20.1668 27.0587H28.0083V33.2677H40.0007V39.9997H28.0078V33.2678H20.1668V27.0587ZM15.9504 37.3206H8.10892V38.5625H15.9504V37.3206ZM0 5.81687H11.9929V16.8627H0V5.81687Z" fill="#F1672E"/>
</svg>

<svg width="40" height="40" fill="none" xmlns="http://www.w3.org/2000/svg"><path fill-rule="evenodd" clip-rule="evenodd" d="M28.005 0h-8.171v16.863h-7.841v5.163h7.841v-5.163h8.171V0zm-7.838 27.059h7.841v6.209h11.993V40H28.008v-6.732h-7.841v-6.21zM15.95 37.32H8.11v1.242h7.841V37.32zM0 5.817h11.993v11.046H0V5.817z" fill="#F1672E"/></svg>
